X: 6
T:Arthur Darley
% Nottingham Music Database
S:Formally, but with lift, via Phil Rowe
Y:ABCB
M:6/8
K:D
P:A
dc/2B/2|A2D AGF|EDC D3|d2e fgf|edc d2A|d2e fgf|
M:9/8
edc d2A BAG|
M:6/8
FED EDC|DA,B, CDE|Ddd Aee|Aff Agg|fed edc|d3 dcB||
P:B
A2D AGF|EDC D3|d2e fgf|edc d2A|d2e fgf|
M:9/8
edc d2A BAG|
M:6/8
FED EDC|DA,B, CDE|Ddd Aee|Aff Agg|fed edc|d3 d=c_B
K:F
|:A2f fef|A2f fef|Aff Agg|Aaa Abb|A2f fef|A2f f2g|fed ed^c|[1d3 dcB:|[2d3 d2e||
K:D
fgf edc|d2A BAG|FED EDC|DA,B, CDE|Ddd Aee|Aff Agg|fed edc|
P:C
d3 dcB||


